icons-common/fire.svg

<svg height="1em" width="auto" viewBox="0 0 105 105" fill="currentColor" xmlns="http://www.w3.org/2000/svg">
    <path d="M57.8533 18.9603C57.3229 18.3571 56.6156 17.8401 55.9084 17.5385C54.4055 16.8061 52.549 16.8492 51.0903 17.4955C50.2947 17.8401 49.6316 18.3571 49.1012 18.9603C42.4708 26.543 27 45.7583 27 61.096C27 64.9305 27.6188 68.3771 28.7681 71.4792C30.0942 74.9689 32.1275 77.9848 34.7796 80.3544C39.3325 84.5335 45.7418 86.86 53.4773 86.86C61.2127 86.86 67.5778 84.5335 72.1307 80.3544C74.827 77.9417 76.8603 74.9258 78.1422 71.393C79.2915 68.3341 79.9103 64.8874 79.9103 61.096C79.9103 45.7583 64.4837 26.543 57.8533 18.9603ZM53.4773 79.3635C53.4773 79.3635 53.3446 79.3635 53.2562 79.3635C43.4433 79.2773 37.7412 68.4202 42.8687 60.2774C45.1672 56.6153 47.7751 52.9532 50.4715 49.5065C51.9744 47.5678 54.9359 47.5678 56.483 49.5065C59.1794 52.9532 61.7873 56.5723 64.0858 60.2774C69.2133 68.4202 63.5112 79.3204 53.6983 79.3635C53.6099 79.3635 53.5657 79.3635 53.4773 79.3635ZM57.8533 39.2096C57.3229 38.5633 56.6156 38.0894 55.9084 37.7447C54.4055 37.0554 52.549 37.0554 51.0903 37.7447C50.2947 38.0894 49.6316 38.6064 49.1012 39.2096C45.6534 43.1302 39.7745 50.239 35.0006 58.3387C36.2383 49.765 43.0897 38.6495 50.4715 29.2573C51.9744 27.3616 54.9359 27.3616 56.483 29.2573C63.8648 38.6064 70.6278 49.722 71.9097 58.2956C67.0916 50.1959 61.3011 43.1302 57.8533 39.2096Z"
          />
</svg>

<svg xmlns="http://www.w3.org/2000/svg" width="auto" height="1em" fill="currentColor" viewBox="0 0 105 105">
    <path d="M57.853 18.96a5.6 5.6 0 0 0-1.945-1.422c-1.502-.732-3.359-.689-4.818-.043a5.6 5.6 0 0 0-1.989 1.465C42.471 26.543 27 45.758 27 61.096c0 3.834.619 7.281 1.768 10.383 1.326 3.49 3.36 6.506 6.012 8.875 4.553 4.18 10.962 6.506 18.697 6.506 7.736 0 14.1-2.326 18.654-6.506 2.696-2.412 4.73-5.428 6.011-8.961 1.15-3.059 1.768-6.506 1.768-10.297 0-15.338-15.426-34.553-22.057-42.136m-4.376 60.403h-.22c-9.814-.086-15.516-10.943-10.388-19.086 2.298-3.662 4.906-7.324 7.602-10.77 1.503-1.94 4.465-1.94 6.012 0 2.696 3.446 5.304 7.065 7.603 10.77 5.127 8.143-.575 19.043-10.388 19.087zm4.376-40.153c-.53-.647-1.237-1.12-1.945-1.465-1.502-.69-3.359-.69-4.818 0a5.6 5.6 0 0 0-1.989 1.465c-3.448 3.92-9.326 11.029-14.1 19.129 1.237-8.574 8.089-19.69 15.47-29.082 1.503-1.895 4.465-1.895 6.012 0 7.382 9.35 14.145 20.465 15.427 29.039-4.818-8.1-10.609-15.166-14.057-19.086"/>
</svg>
